X: 1191
M: 2/4
L: 1/16
K: D
ff |\
f2ff f2ff | f2b2 f2b2 | f2b2 f2e2 | d2c2B2 ff|\
f2ff f2ff | f2b2 f2b2 | f2b2 f2^g2 | a2"^da Capo"e2a2 ]
e2 "^>"e4 f2 | g2 "^>"e4 g2 | f2 "^>"d4 f2 | e2 "^>"a4 A2 |\
e2 "^>"e4 f2 | g2 "^>"e4 f2 | f2 "^>"d4 f2 | "^da Capo"e2 a4 |]

